!!!!SEGMENT: pl-cz--iii-979--009_kasprzykowski-ignacy--missa-es-agnus.krn
!!!cenid: 18xx:858
!!!COM: Kasprzykowski, Ignacy
!!!COM-rismID: pe30098316
!!!CDT: -1752/02/17
!!!CNT:
!!!OPR: Missa Es
!!!OTL: Credo
!!!OMV: 003
!!!PDT:
!!!AGN: Sacred; Mass
!!!SMS-siglum: PL-CZ
!!!SMS-shelfmark: III-979
!!!SMS-shelfwork: 001-003 M
!!!SMS-variant:
!!!SMS-altvar:
!!!NIFC-rismSourceID: 300000565
!!!NIFC-islandoraID: pl-cz:41795
!!!URL-pdf-islandora: https://repozytorium.nifc.pl/islandora/object/pl-cz%3A41795/datastream/PDF/view
!!!URL-scan:
!!!ONB-nifc: UWAGA: części Mszy: Kyrie, Gloria, Credo, Et incarnatus, Et resurrexit, Sanctus, Pleni, Benedictus, Agnus
!!!AIN: 1 bass 1 clars 1 soprn 1 violn
!!!key: E-
**kern	**dynam	**kern	**text	**kern	**text	**kern	**dynam
*part4	*part4	*part3	*part3	*part2	*part2	*part1	*part1
*staff4	*	*staff3	*staff3	*staff2	*staff2	*staff1	*
*I"Violino Primo in Dis	*	*I"Baſso in Dis	*	*I"Canto in. Dis	*	*I"Clarinetto Primo in B	*
*I'vl 1 in Dis	*	*I'B	*	*I'S	*	*I'cl 1 in B	*
*Ivioln	*	*Ibass	*	*Isoprn	*	*Iclars	*
*ICstr	*	*ICvox	*	*ICvox	*	*ICww	*
*	*	*IGsolo	*	*IGsolo	*	*	*
*mI"Violino I	*	*mI"Basso	*	*mI"Soprano	*	*mI"Clarinetto I in Bb	*
*clefG2	*	*clefF4	*	*clefC1	*	*clefG2	*
*	*	*	*	*mclefG2	*	*	*
*	*	*	*	*	*	*ITrd1c2	*
*k[e-b-a-]	*	*k[a-e-b-]	*	*k[b-a-e-]	*	*k[b-e-a-]	*
*mk[b-e-a-]	*	*mk[b-e-a-]	*	*	*	*	*
*E-:	*	*E-:	*	*E-:	*	*E-:	*
*M3/4	*	*M3/4	*	*M3/4	*	*M3/4	*
=1	=1	=1	=1	=1	=1	=1	=1
!!!OMD:
!!!OMD-mod: Allegro moderato
*	*	*all\right	*	*all\right	*	*	*
!	!	!LO:MO:mod=*null:null	!	!LO:MO:mod=*null:null	!	!LO:MO:mod=*null:null	!
*	*	*2\right	*	*2\right	*	*2\right	*
!	!	!LO:TX:t=P:problem=znaki E- BB- A-:mod=	!	!	!	!	!
!LO:TX:a:i:t=allo.:mod=	!LO:DY:b:rj:t=for.	!LO:TX:a:t=Allo Moderato:color=red:mod=	!	!LO:TX:a:t=Allegro Moderato:color=red:mod=	!	!LO:TX:a:i:t=allo. Moderato:mod=	!LO:DY:rj:t=for.:mod=
2e- 2G/	f	2E-\	Cre-	2ee-\	Cre-	2ee-\	f
4e- 4G/	.	4E-\	-do	4ee-\	-do	4ee-\	.
=2	=2	=2	=2	=2	=2	=2	=2
4g 4B-/	.	4G\	in	4gg\	in	4gg\	.
4e- 4G/	.	4E-\	u-	4ee-\	u-	4ee-\	.
4g 4B-/	.	4G\	-num	4gg\	-num	4gg\	.
=3	=3	=3	=3	=3	=3	=3	=3
4b-\	.	(4B-\	De-	(4bb-\	De-	4bb-\	.
4ee-\	.	4G\)	.	4gg\)	.	4gg\	.
4gg\	.	4E-\	-um	4ee-\	-um	4ee-\	.
=4	=4	=4	=4	=4	=4	=4	=4
4bb- 4b-\	.	4BB-/	Pa-	4b-\	Pa-	4bb-\	.
4bb- 4b-\	.	4BB-/	-trem	4b-\	-trem	4bb-\	.
4r	.	4r	.	4r	.	4r	.
=5	=5	=5	=5	=5	=5	=5	=5
!LO:MO:mod=*null:null	!	!	!	!	!	!	!
*2\right	*	*	*	*	*	*	*
!	!LO:DY:b:rj:t=p.	!LO:TX:a:t=4:mod=	!	!LO:TX:a:t=4:mod=	!	!	!LO:DY:rj:t=p.:mod=
(2aa-\	p	0.r	.	0.r	.	(2aa-\	p
4gg\)	.	.	.	.	.	4gg\)	.
=6	=6	=6	=6	=6	=6	=6	=6
(2ff\	.	.	.	.	.	(2ff\	.
4ee-\)	.	.	.	.	.	4ee-\)	.
=7	=7	=7	=7	=7	=7	=7	=7
4dd\	.	.	.	.	.	(4dd\	.
4ee-\	.	.	.	.	.	4ee-\)	.
4cc\	.	.	.	.	.	4cc\	.
=8	=8	=8	=8	=8	=8	=8	=8
4b-\	.	.	.	.	.	4b-\|	.
4b-\	.	.	.	.	.	4b-\|	.
8B-/L	.	.	.	.	.	4r	.
8B-/J	.	.	.	.	.	.	.
=9	=9	=9	=9	=9	=9	=9	=9
!	!LO:DY:b:rj:t=f.	!	!	!	!	!	!LO:DY:rj:t=for.:mod=
2e- 2G/	f	2E-\	Cre-	2ee-\	Cre-	2ee-\	f
4e- 4G/	.	4E-\	-do	4ee-\	-do	4ee-\	.
!	!	!LO:LB:g=original	!	!	!	!LO:LB:g=original	!
=10	=10	=10	=10	=10	=10	=10	=10
4g 4B-/	.	4G\	in	4gg\	in	4gg\	.
4e- 4G/	.	4E-\	u-	4ee-\	u-	4ee-\	.
4g 4G/	.	4G\	-num	4gg\	-num	4gg\	.
!LO:LB:g=original	!	!	!	!LO:LB:g=original	!	!	!
=11	=11	=11	=11	=11	=11	=11	=11
!	!	!	!	!	!	!LO:SIC:s=(4bb-	!
4b-\	.	(4B-\	De-	(4bb-\	De-	4bb-\	.
!	!	!	!	!	!	!LO:SIC:s=4gg)	!
4ee-\	.	4G\)	.	4gg\)	.	4gg\	.
4gg\	.	4E-\	-um	4ee-\	-um	4ee-\	.
=12	=12	=12	=12	=12	=12	=12	=12
!	!	!	!	!	!	!LO:SIC:s=4bb-'	!
4bb- 4b-\	.	4BB-/	Pa-	4b-\	Pa-	4bb-\|	.
!	!	!	!	!	!	!LO:SIC:s=4bb-'	!
4bb- 4b-\	.	4BB-/	-trem	4b-\	-trem	4bb-\|	.
4r	.	4r	.	4r	.	4r	.
=13	=13	=13	=13	=13	=13	=13	=13
!	!	!	!	!	!	!	!LO:DY:t= :mod=%s
!	!	!	!	!	!	!	!LO:MO:mod=!LO&colon;DY&colon;ed=brack
!	!LO:DY:b:rj:t=p.	!	!	!	!	!LO:SIC:s=(2aa-	!null
(2aa-\	p	2E-\	fa-	2ff\	fa-	2aa-\	p
!	!	!	!	!	!	!LO:SIC:s=4gg)	!
4gg\)	.	4E-\	-cto-	4ee-\	-cto-	4gg\	.
=14	=14	=14	=14	=14	=14	=14	=14
!	!	!	!	!	!	!LO:SIC:s=(2aa-	!
(2aa-\	.	2E-\	-rem	2ff\	-rem	2aa-\	.
!	!	!	!LO:MO:mod=Coe-	!	!LO:MO:mod=Coe-	!LO:SIC:s=4gg)	!
4gg\)	.	4E-\	Ce-	4ee-\	Ce-	4gg\	.
=15	=15	=15	=15	=15	=15	=15	=15
4ff\	.	4A-\	-li	4ff\	-li	4ff\	.
4ee-\	.	4B-\	et	4ee-\	et	4ee-\	.
!	!	!LO:SIC:v:s=4BB-	!	!	!	!	!
4dd\	.	4E-\	ter-	4dd\	ter-	4dd\	.
=16	=16	=16	=16	=16	=16	=16	=16
!	!	!	!	!	!	!	!LO:DY:t= :mod=%s
!	!	!	!	!	!	!	!LO:MO:mod=!LO&colon;DY&colon;ed=brack
!	!LO:DY:b:rj:t=f&colon;	!	!	!	!	!	!null
8ee-\L	f	2E-\	-re	2.ee-\	-re	2ee-\	f
8b-\	.	.	.	.	.	.	.
8an\	.	.	.	.	.	.	.
8b-\	.	.	.	.	.	.	.
8cc\	.	4r	.	.	.	4b-\	.
8b-\J	.	.	.	.	.	.	.
=17	=17	=17	=17	=17	=17	=17	=17
8aa-\L	.	4A-\	fac-	4ff\	fac-	4aa-\	.
8b-\	.	.	.	.	.	.	.
8gg\	.	4B-\	-to-	4ee-\	-to-	4gg\	.
8b-\	.	.	.	.	.	.	.
8ff\	.	4BB-/	-rem	4dd\	-rem	4ff\	.
8b-\J	.	.	.	.	.	.	.
!	!	!LO:LB:g=original	!	!	!	!	!
=18	=18	=18	=18	=18	=18	=18	=18
!	!	!	!LO:MO:mod=Coe-	!	!LO:MO:mod=Coe-	!	!
8ee-\L	.	2E-\	Ce-	2.ee-\	Ce-	2ee-\	.
8b-\	.	.	.	.	.	.	.
!LO:SIC:v:s=8a	!	!	!	!	!	!	!
8a-\	.	.	.	.	.	.	.
8b-\	.	.	.	.	.	.	.
8gg\	.	4r	.	.	.	4b-\	.
8b-\J	.	.	.	.	.	.	.
=19	=19	=19	=19	=19	=19	=19	=19
8ff\L	.	4A-\	-li	4ff\	-li	4aa-\	.
8b-\	.	.	.	.	.	.	.
8ee-\	.	4B-\	et	4ee-\	et	4gg\	.
8b-\	.	.	.	.	.	.	.
8dd\	.	4BB-/	ter-	4dd\	ter-	4ff\	.
8b-\J	.	.	.	.	.	.	.
=20	=20	=20	=20	=20	=20	=20	=20
!	!LO:DY:t= :mod=%s	!	!	!	!	!	!
!	!LO:MO:mod=!LO&colon;DY&colon;ed=brack	!	!	!	!	!	!
!	!null	!	!	!	!	!	!LO:DY:t=p.:mod=
(8ee-\L	p	2.E-\	-re	2.ee-\	-re	2.gg\	p
8b-\J)	.	.	.	.	.	.	.
*tremolo	*	*	*	*	*	*	*
!LO:TX:a:t=....:mod=	!	!	!	!	!	!	!
8gg\L'	.	.	.	.	.	.	.
8gg\'	.	.	.	.	.	.	.
8gg\'	.	.	.	.	.	.	.
8gg\J'	.	.	.	.	.	.	.
!LO:LB:g=original	!	!	!	!LO:LB:g=original	!	!	!
=21	=21	=21	=21	=21	=21	=21	=21
!LO:SIC:s=(8ffL	!	!	!	!	!	!	!
8ff\L	.	2.D\	Pa-	2.ff\	Pa-	2.ff\	.
!LO:SIC:s=8ddJ)	!	!	!	!	!	!	!
8dd\J	.	.	.	.	.	.	.
!LO:TX:a:t=....:mod=	!	!	!	!	!	!	!
8ff\L'	.	.	.	.	.	.	.
8ff\'	.	.	.	.	.	.	.
8ff\'	.	.	.	.	.	.	.
8ff\J'	.	.	.	.	.	.	.
*Xtremolo	*	*	*	*	*	*	*
=22	=22	=22	=22	=22	=22	=22	=22
8ee-\L	.	2.F\	-trem	2.ee-\	-trem	2.ee-\	.
8cc\	.	.	.	.	.	.	.
8ee-\	.	.	.	.	.	.	.
8ee-\	.	.	.	.	.	.	.
8ee-\	.	.	.	.	.	.	.
8ee-\J	.	.	.	.	.	.	.
=23	=23	=23	=23	=23	=23	=23	=23
!	!LO:DY:b:t=p.	!	!	!	!	!	!
!	!LO:MO:mod= 	!	!	!	!	!	!
(8dd\L	p	2.BB-/	O-	2.dd\	O-	2.bb-\	.
8bb-\)	.	.	.	.	.	.	.
8bb-\	.	.	.	.	.	.	.
8bb-\	.	.	.	.	.	.	.
8bb-\	.	.	.	.	.	.	.
8bb-\J	.	.	.	.	.	.	.
=24	=24	=24	=24	=24	=24	=24	=24
8gg\L	.	2.E-\	-mni-	2.ee-\	-mni-	4gg\	.
8gg\	.	.	.	.	.	.	.
8ff\	.	.	.	.	.	4ff\	.
8ff\	.	.	.	.	.	.	.
8ee-\	.	.	.	.	.	4ee-\	.
8ee-\J	.	.	.	.	.	.	.
!	!	!	!	!	!	!LO:LB:g=original	!
=25	=25	=25	=25	=25	=25	=25	=25
8dd\L	.	2.F\	-po-	2.dd\	-po-	4dd\	.
8dd\	.	.	.	.	.	.	.
8cc\	.	.	.	.	.	4cc\	.
8cc\	.	.	.	.	.	.	.
8b-\	.	.	.	.	.	4b-\	.
8b-\J	.	.	.	.	.	.	.
=26	=26	=26	=26	=26	=26	=26	=26
8cc\L	.	2.E-\	-ten-	2.cc\	-ten-	4cc\	.
8cc\	.	.	.	.	.	.	.
8b-\	.	.	.	.	.	4b-\	.
8b-\	.	.	.	.	.	.	.
8an\	.	.	.	.	.	4a\	.
8a\J	.	.	.	.	.	.	.
=27	=27	=27	=27	=27	=27	=27	=27
4b-/	.	4D\	-tem	4b-\	-tem	4b-\	.
!	!LO:DY:b:t=f&colon;	!	!	!	!	!	!
8b-/L	f	4r	.	2r	.	4r	.
8a-X/	.	.	.	.	.	.	.
8g/	.	4r	.	.	.	4r	.
8f/J	.	.	.	.	.	.	.
!	!	!LO:LB:g=original	!	!	!	!	!
=28	=28	=28	=28	=28	=28	=28	=28
!	!	!	!	!	!	!	!LO:DY:rj:t=f&colon;:mod=
2e- 2G/	.	2E-\	Cre-	2ee-\	Cre-	2ee-\	f
4e- 4G/	.	4E-\	-do	4ee-\	-do	4ee-\	.
!LO:LB:g=original	!	!	!	!	!	!	!
=29	=29	=29	=29	=29	=29	=29	=29
4g 4B-/	.	4G\	in	4gg\	in	4gg\	.
4e- 4G/	.	4E-\	u-	4ee-\	u-	4ee-\	.
4g 4B-/	.	4G\	-num	4gg\	-num	4gg\	.
=30	=30	=30	=30	=30	=30	=30	=30
!	!	!	!	!LO:SIC:s=(4bb-	!	!	!
4b-\	.	(4B-\	De-	4bb-\	De-	(4bb-\	.
!	!	!	!	!LO:SIC:s=4gg)	!	!	!
4ee-\	.	4G\)	.	4gg\	.	4gg\)	.
4gg\	.	4E-\	-um	4ee-\	-um	4ee-\	.
=31	=31	=31	=31	=31	=31	=31	=31
4bb- 4b-\	.	4BB-/	Pa-	4b-\	Pa-	4bb-'\	.
4bb- 4b-\	.	4BB-/	-trem	4b-\	-trem	4bb-'\	.
4r	.	4r	.	4r	.	4r	.
!	!	!	!	!LO:LB:g=original	!	!	!
=32	=32	=32	=32	=32	=32	=32	=32
!	!	!	!	!	!	!	!LO:DY:t= :mod=%s
!	!	!	!	!	!	!	!LO:MO:mod=!LO&colon;DY&colon;ed=brack
!	!LO:DY:b:rj:t=p.	!LO:TX:a:t=3:mod=	!	!LO:TX:a:t=3:mod=	!	!	!null
(2aa-\	p	1.r	.	1.r	.	(2aa-\	p
4gg\)	.	.	.	.	.	4gg\)	.
=33	=33	=33	=33	=33	=33	=33	=33
(2aa-\	.	.	.	.	.	(2aa-\	.
4gg\)	.	.	.	.	.	4gg\)	.
=34	=34	=34	=34	=34	=34	=34	=34
4ff\	.	2.r	.	2.r	.	4ff\	.
4ee-\	.	.	.	.	.	4ee-\	.
4dd\	.	.	.	.	.	4dd\	.
=35	=35	=35	=35	=35	=35	=35	=35
8ee-\L	.	2.E-\	O-	2.gg\	O-	2.gg\	.
8b-\	.	.	.	.	.	.	.
8an\	.	.	.	.	.	.	.
8b-\	.	.	.	.	.	.	.
8cc\	.	.	.	.	.	.	.
8b-\J	.	.	.	.	.	.	.
=36	=36	=36	=36	=36	=36	=36	=36
8aa-\L	.	2.F\	-mni-	2.ff\	-mni	2.aa-\	.
8b-\	.	.	.	.	.	.	.
8gg\	.	.	.	.	.	.	.
8b-\	.	.	.	.	.	.	.
8ff\	.	.	.	.	.	.	.
8b-\J	.	.	.	.	.	.	.
=37	=37	=37	=37	=37	=37	=37	=37
8ee-\L	.	2.G\	-po-	2.gg\	po-	2.gg\	.
8b-\	.	.	.	.	.	.	.
!LO:SIC:v:s=8a	!	!	!	!	!	!	!
8a-\	.	.	.	.	.	.	.
8b-\	.	.	.	.	.	.	.
8gg\	.	.	.	.	.	.	.
8b-\J	.	.	.	.	.	.	.
=38	=38	=38	=38	=38	=38	=38	=38
8ff\L	.	2.BB-/	-ten-	2.ff\	-ten-	2.ff\	.
8b-\	.	.	.	.	.	.	.
8ee-\	.	.	.	.	.	.	.
8b-\	.	.	.	.	.	.	.
8dd\	.	.	.	.	.	.	.
8b-\J	.	.	.	.	.	.	.
!LO:LB:g=original	!	!	!	!	!	!LO:LB:g=original	!
=39	=39	=39	=39	=39	=39	=39	=39
8ee-\L	.	2.E-\	-tem	2.ee-\	-tem	2.ee-\	.
8b-\	.	.	.	.	.	.	.
8an\	.	.	.	.	.	.	.
8b-\	.	.	.	.	.	.	.
8cc\	.	.	.	.	.	.	.
8b-\J	.	.	.	.	.	.	.
!	!	!LO:LB:g=original	!	!	!	!	!
=40	=40	=40	=40	=40	=40	=40	=40
8aa-\L	.	2.BB-/	fa-	2.ff\	fa-	2.ff\	.
8b-\	.	.	.	.	.	.	.
8gg\	.	.	.	.	.	.	.
8b-\	.	.	.	.	.	.	.
8ff\	.	.	.	.	.	.	.
8b-\J	.	.	.	.	.	.	.
=41	=41	=41	=41	=41	=41	=41	=41
8ee-\L	.	2.E-\	-cto-	2.ee-\	-cto-	2.ee-\	.
8b-\	.	.	.	.	.	.	.
!LO:SIC:v:s=8a	!	!	!	!	!	!	!
8a-\	.	.	.	.	.	.	.
8b-\	.	.	.	.	.	.	.
8cc\	.	.	.	.	.	.	.
8b-\J	.	.	.	.	.	.	.
=42	=42	=42	=42	=42	=42	=42	=42
8ff\L	.	2.BB-/	-rem	2.dd\	-rem	2.dd\	.
8b-\	.	.	.	.	.	.	.
8ee-\	.	.	.	.	.	.	.
8b-\	.	.	.	.	.	.	.
8dd\	.	.	.	.	.	.	.
8b-\J	.	.	.	.	.	.	.
=43	=43	=43	=43	=43	=43	=43	=43
!	!	!	!LO:MO:mod=Coe-	!	!LO:MO:mod=Coe-	!	!
4ee- 4g/	.	2.E-\	Ce-	2.ee-\	Ce-	4ee-\	.
4ee- 4g/	.	.	.	.	.	4ee-\	.
4ee- 4g/	.	.	.	.	.	4ee-\	.
=44	=44	=44	=44	=44	=44	=44	=44
2ee- 2g/	.	2E-\	-li	2ee-\	-li	2ee-\	.
4r	.	4r	.	4r	.	4r	.
==	==	==	==	==	==	==	==
*-	*-	*-	*-	*-	*-	*-	*-
!!!system-decoration: s1[(s2,s3)]s4
!!!RDF**kern: | = vertical stroke
!!!filter-modern: sic -sq | shed -e "s/:rj/:RJ/L" | modori -m | shed -e "s/LO:DY:(a|b|rj)/LO:dy:$1/L" | autostem -r | tie -s | shed -k -e "s/[<>]//g" | humtr -p
!!!ENC: Anastazja Marusiak
!!!END: 2020-08-10
!!!ENC: Marta Lawrence
!!!END: 2021-11-19
!!!ENC-modern: Andrzej Borzym
!!!END-modern: 2022-06-14
